X:7691
T:Trip to Windsor
O:England
M:4/4
L:1/8
C:Dan R. MacDonald
K:A
A/2A/2A (AB) Ace=g| f/2f/2f (fg) fef^g| agfe fgaf|1 ecBc AFEF:|2 ecBd cA
A2||
c|: efec efae| ((3fga) (ec) BAcB| AFEC EFAE| ((3FGA) (EC) B,A,CB,| A,2 (
C
E) FECE|
AEcB Aceg| agfe fgaf|1 ecBd (cA) A:|2 ecBc ~ A4||


